Newaita/actions/22/kdenlive-select-images.svg

<svg height="22" viewBox="0 0 22 22" width="22" xmlns="http://www.w3.org/2000/svg"><g fill="#424242"><path d="m3.636719 1.992188c-1.007813 0-1.816407.808593-1.816407 1.816406v3.640625h1.816407v-2.730469c0-.503906.40625-.910156.910156-.910156h2.730469v-1.816406zm10.917969 0v1.816406h2.726562c.503906 0 .910156.40625.910156.910156v2.730469h1.820313v-3.640625c0-1.007813-.8125-1.816406-1.820313-1.816406zm-12.734376 12.734374v3.636719c0 1.007813.808594 1.820313 1.816407 1.820313h3.640625v-1.820313h-2.730469c-.503906 0-.910156-.40625-.910156-.910156v-2.726563zm16.371094 0v2.726563c0 .503906-.40625.910156-.910156.910156h-2.726562v1.820313h3.636718c1.007813 0 1.820313-.8125 1.820313-1.820313v-3.636719zm0 0"/><path d="m8.242188 8.539062c-.175782-.003906-.339844.089844-.421876.242188l-5.003906 9.097656c-.085937.148438-.082031.328125.003906.476563.089844.144531.25.230469.417969.226562.171875-.003906.324219-.097656.40625-.25l4.609375-8.386719 3.214844 5.222657c.078125.125.203125.207031.347656.222656.144532.015625.285156-.035156.386719-.136719l2.351563-2.347656 4.21875 5.488281c.101562.132813.269531.207031.4375.183594.167968-.023437.3125-.132813.378906-.289063.0625-.160156.039062-.339843-.066406-.472656l-4.550782-5.910156c-.082031-.109375-.207031-.175781-.34375-.183594-.132812-.007812-.265625.039063-.363281.136719l-2.304687 2.304687-3.328126-5.402343c-.082031-.136719-.230468-.222657-.390624-.222657zm0 0"/><path d="m14.371094 4.898438c-1.132813 0-2.0625.929687-2.0625 2.0625 0 1.136718.929687 2.066406 2.0625 2.066406 1.136718 0 2.066406-.929688 2.066406-2.066406 0-1.132813-.929688-2.0625-2.066406-2.0625zm0 .945312c.628906 0 1.121094.488281 1.121094 1.117188 0 .628906-.492188 1.121093-1.121094 1.121093s-1.117188-.492187-1.117188-1.121093c0-.628907.488282-1.117188 1.117188-1.117188zm0 0"/></g></svg>

<svg xmlns="http://www.w3.org/2000/svg" xmlns:xlink="http://www.w3.org/1999/xlink" width="22px" height="22px" viewBox="0 0 22 22" version="1.1">
<g id="surface1">
     <defs>
  <style id="current-color-scheme" type="text/css">
   .ColorScheme-Text { color:#424242; } .ColorScheme-Highlight { color:#eeeeee; }
  </style>
 </defs>
<path style="fill:currentColor" class="ColorScheme-Text" d="M 3.636719 1.992188 C 2.628906 1.992188 1.820312 2.800781 1.820312 3.808594 L 1.820312 7.449219 L 3.636719 7.449219 L 3.636719 4.71875 C 3.636719 4.214844 4.042969 3.808594 4.546875 3.808594 L 7.277344 3.808594 L 7.277344 1.992188 Z M 14.554688 1.992188 L 14.554688 3.808594 L 17.28125 3.808594 C 17.785156 3.808594 18.191406 4.214844 18.191406 4.71875 L 18.191406 7.449219 L 20.011719 7.449219 L 20.011719 3.808594 C 20.011719 2.800781 19.199219 1.992188 18.191406 1.992188 Z M 1.820312 14.726562 L 1.820312 18.363281 C 1.820312 19.371094 2.628906 20.183594 3.636719 20.183594 L 7.277344 20.183594 L 7.277344 18.363281 L 4.546875 18.363281 C 4.042969 18.363281 3.636719 17.957031 3.636719 17.453125 L 3.636719 14.726562 Z M 18.191406 14.726562 L 18.191406 17.453125 C 18.191406 17.957031 17.785156 18.363281 17.28125 18.363281 L 14.554688 18.363281 L 14.554688 20.183594 L 18.191406 20.183594 C 19.199219 20.183594 20.011719 19.371094 20.011719 18.363281 L 20.011719 14.726562 Z M 18.191406 14.726562 "/>
     <defs>
  <style id="current-color-scheme" type="text/css">
   .ColorScheme-Text { color:#424242; } .ColorScheme-Highlight { color:#eeeeee; }
  </style>
 </defs>
<path style="fill:currentColor" class="ColorScheme-Text" d="M 8.242188 8.539062 C 8.066406 8.535156 7.902344 8.628906 7.820312 8.78125 L 2.816406 17.878906 C 2.730469 18.027344 2.734375 18.207031 2.820312 18.355469 C 2.910156 18.5 3.070312 18.585938 3.238281 18.582031 C 3.410156 18.578125 3.5625 18.484375 3.644531 18.332031 L 8.253906 9.945312 L 11.46875 15.167969 C 11.546875 15.292969 11.671875 15.375 11.816406 15.390625 C 11.960938 15.40625 12.101562 15.355469 12.203125 15.253906 L 14.554688 12.90625 L 18.773438 18.394531 C 18.875 18.527344 19.042969 18.601562 19.210938 18.578125 C 19.378906 18.554688 19.523438 18.445312 19.589844 18.289062 C 19.652344 18.128906 19.628906 17.949219 19.523438 17.816406 L 14.972656 11.90625 C 14.890625 11.796875 14.765625 11.730469 14.628906 11.722656 C 14.496094 11.714844 14.363281 11.761719 14.265625 11.859375 L 11.960938 14.164062 L 8.632812 8.761719 C 8.550781 8.625 8.402344 8.539062 8.242188 8.539062 Z M 8.242188 8.539062 "/>
     <defs>
  <style id="current-color-scheme" type="text/css">
   .ColorScheme-Text { color:#424242; } .ColorScheme-Highlight { color:#eeeeee; }
  </style>
 </defs>
<path style="fill:currentColor" class="ColorScheme-Text" d="M 14.371094 4.898438 C 13.238281 4.898438 12.308594 5.828125 12.308594 6.960938 C 12.308594 8.097656 13.238281 9.027344 14.371094 9.027344 C 15.507812 9.027344 16.4375 8.097656 16.4375 6.960938 C 16.4375 5.828125 15.507812 4.898438 14.371094 4.898438 Z M 14.371094 5.84375 C 15 5.84375 15.492188 6.332031 15.492188 6.960938 C 15.492188 7.589844 15 8.082031 14.371094 8.082031 C 13.742188 8.082031 13.253906 7.589844 13.253906 6.960938 C 13.253906 6.332031 13.742188 5.84375 14.371094 5.84375 Z M 14.371094 5.84375 "/>
</g>
</svg>
